Newaita-dark/actions/32/view-sort.svg

<svg height="32" viewBox="0 0 32 32" width="32" xmlns="http://www.w3.org/2000/svg"><g fill="#e0e0e0"><path d="m28.445312 7.527344h-13.890624c-.367188 0-.664063-.296875-.664063-.660156v-1.324219c0-.367188.296875-.664063.664063-.664063h13.890624c.367188 0 .660157.296875.660157.664063v1.324219c0 .363281-.292969.660156-.660157.660156zm0 0"/><path d="m28.445312 17.449219h-13.890624c-.367188 0-.664063-.296875-.664063-.660157v-1.324218c0-.363282.296875-.660156.664063-.660156h13.890624c.367188 0 .660157.296874.660157.660156v1.324218c0 .363282-.292969.660157-.660157.660157zm0 0"/><path d="m28.445312 27.371094h-13.890624c-.367188 0-.664063-.292969-.664063-.660156v-1.324219c0-.363281.296875-.660157.664063-.660157h13.890624c.367188 0 .660157.296876.660157.660157v1.324219c0 .367187-.292969.660156-.660157.660156zm0 0"/><path d="m5.953125 24.066406h2.648437v-5.9375c0-.367187-.296874-.664062-.664062-.664062h-1.324219c-.363281 0-.660156.296875-.660156.664062zm0 0"/><path d="m11.90625 22.742188h-9.261719l4.632813 6.613281zm0 0"/><path d="m5.953125 8.1875h2.648437v5.9375c0 .367188-.296874.660156-.664062.660156h-1.324219c-.363281 0-.660156-.292968-.660156-.660156zm0 0"/><path d="m11.90625 9.511719h-9.261719l4.632813-6.617188zm0 0"/></g></svg>

<svg xmlns="http://www.w3.org/2000/svg" xmlns:xlink="http://www.w3.org/1999/xlink" width="32px" height="32px" viewBox="0 0 32 32" version="1.1">
<g id="surface1">
     <defs>
  <style id="current-color-scheme" type="text/css">
   .ColorScheme-Text { color:#eeeeee; } .ColorScheme-Highlight { color:#424242; }
  </style>
 </defs>
<path style="fill:currentColor" class="ColorScheme-Text" d="M 28.445312 7.527344 L 14.554688 7.527344 C 14.1875 7.527344 13.890625 7.230469 13.890625 6.867188 L 13.890625 5.542969 C 13.890625 5.175781 14.1875 4.878906 14.554688 4.878906 L 28.445312 4.878906 C 28.8125 4.878906 29.105469 5.175781 29.105469 5.542969 L 29.105469 6.867188 C 29.105469 7.230469 28.8125 7.527344 28.445312 7.527344 Z M 28.445312 7.527344 "/>
     <defs>
  <style id="current-color-scheme" type="text/css">
   .ColorScheme-Text { color:#eeeeee; } .ColorScheme-Highlight { color:#424242; }
  </style>
 </defs>
<path style="fill:currentColor" class="ColorScheme-Text" d="M 28.445312 17.449219 L 14.554688 17.449219 C 14.1875 17.449219 13.890625 17.152344 13.890625 16.789062 L 13.890625 15.464844 C 13.890625 15.101562 14.1875 14.804688 14.554688 14.804688 L 28.445312 14.804688 C 28.8125 14.804688 29.105469 15.101562 29.105469 15.464844 L 29.105469 16.789062 C 29.105469 17.152344 28.8125 17.449219 28.445312 17.449219 Z M 28.445312 17.449219 "/>
     <defs>
  <style id="current-color-scheme" type="text/css">
   .ColorScheme-Text { color:#eeeeee; } .ColorScheme-Highlight { color:#424242; }
  </style>
 </defs>
<path style="fill:currentColor" class="ColorScheme-Text" d="M 28.445312 27.371094 L 14.554688 27.371094 C 14.1875 27.371094 13.890625 27.078125 13.890625 26.710938 L 13.890625 25.386719 C 13.890625 25.023438 14.1875 24.726562 14.554688 24.726562 L 28.445312 24.726562 C 28.8125 24.726562 29.105469 25.023438 29.105469 25.386719 L 29.105469 26.710938 C 29.105469 27.078125 28.8125 27.371094 28.445312 27.371094 Z M 28.445312 27.371094 "/>
     <defs>
  <style id="current-color-scheme" type="text/css">
   .ColorScheme-Text { color:#eeeeee; } .ColorScheme-Highlight { color:#424242; }
  </style>
 </defs>
<path style="fill:currentColor" class="ColorScheme-Text" d="M 5.953125 24.066406 L 8.601562 24.066406 L 8.601562 18.128906 C 8.601562 17.761719 8.304688 17.464844 7.9375 17.464844 L 6.613281 17.464844 C 6.25 17.464844 5.953125 17.761719 5.953125 18.128906 Z M 5.953125 24.066406 "/>
     <defs>
  <style id="current-color-scheme" type="text/css">
   .ColorScheme-Text { color:#eeeeee; } .ColorScheme-Highlight { color:#424242; }
  </style>
 </defs>
<path style="fill:currentColor" class="ColorScheme-Text" d="M 11.90625 22.742188 L 2.644531 22.742188 L 7.277344 29.355469 Z M 11.90625 22.742188 "/>
     <defs>
  <style id="current-color-scheme" type="text/css">
   .ColorScheme-Text { color:#eeeeee; } .ColorScheme-Highlight { color:#424242; }
  </style>
 </defs>
<path style="fill:currentColor" class="ColorScheme-Text" d="M 5.953125 8.1875 L 8.601562 8.1875 L 8.601562 14.125 C 8.601562 14.492188 8.304688 14.785156 7.9375 14.785156 L 6.613281 14.785156 C 6.25 14.785156 5.953125 14.492188 5.953125 14.125 Z M 5.953125 8.1875 "/>
     <defs>
  <style id="current-color-scheme" type="text/css">
   .ColorScheme-Text { color:#eeeeee; } .ColorScheme-Highlight { color:#424242; }
  </style>
 </defs>
<path style="fill:currentColor" class="ColorScheme-Text" d="M 11.90625 9.511719 L 2.644531 9.511719 L 7.277344 2.894531 Z M 11.90625 9.511719 "/>
</g>
</svg>
